X: 7631
T: Cois Na hAbhna
R: slide
M: 12/8
K: Gmajor
|:B3 BAB d2c A3|DFA cBc e2d B3|B3 BAB d2c A3|DFA DFA B2A G3:|
|:d^cd gdB =c2B A3|DFA f3 e2d B3|d^cd gdB =c2B A3|fed cAF DBA G3:|

